assets/1. F-P/Mountain cableway/Color/Mountain.Cableway-color.svg

<svg width="100%" height="100%" viewBox="0 0 32 32" fill="none" xmlns="http://www.w3.org/2000/svg">
<g filter="url(#filter0_i_18_12931)">
<path d="M27.9893 12H4.02071C2.91032 12 2.00999 12.9 2.00999 14.01V21V26.99C2.00999 28.65 3.36048 30 5.02107 30H26.9989C28.6595 30 30.01 28.65 30.01 26.99V21V14.01C30 12.91 29.0997 12 27.9893 12Z" fill="url(#paint0_linear_18_12931)"/>
</g>
<path d="M17.01 4L15.01 4.27157V12H17.01V4Z" fill="url(#paint1_radial_18_12931)"/>
<path d="M17.01 4L15.01 4.27157V12H17.01V4Z" fill="url(#paint2_linear_18_12931)"/>
<g filter="url(#filter1_i_18_12931)">
<path d="M6.90632 14H2.00999V25H6.90632C7.51836 25 8.00999 24.51 8.00999 23.9V15.1C8.00999 14.5 7.51836 14 6.90632 14Z" fill="url(#paint3_linear_18_12931)"/>
</g>
<path d="M25.1137 25H30.01V14H25.1137C24.5016 14 24.01 14.49 24.01 15.1V23.9C24.01 24.51 24.5016 25 25.1137 25Z" fill="url(#paint4_linear_18_12931)"/>
<path d="M25.1137 25H30.01V14H25.1137C24.5016 14 24.01 14.49 24.01 15.1V23.9C24.01 24.51 24.5016 25 25.1137 25Z" fill="url(#paint5_linear_18_12931)"/>
<path d="M25.1137 25H30.01V14H25.1137C24.5016 14 24.01 14.49 24.01 15.1V23.9C24.01 24.51 24.5016 25 25.1137 25Z" fill="url(#paint6_radial_18_12931)"/>
<g filter="url(#filter2_i_18_12931)">
<path d="M20.9109 14H11.1091C10.4996 14 10.01 14.49 10.01 15.1V23.9C10.01 24.51 10.4996 25 11.1091 25H20.9109C21.5204 25 22.01 24.51 22.01 23.9V15.1C22.01 14.5 21.5204 14 20.9109 14Z" fill="url(#paint7_linear_18_12931)"/>
</g>
<g filter="url(#filter3_i_18_12931)">
<path fill-rule="evenodd" clip-rule="evenodd" d="M29.0328 2.88074C29.0987 3.42908 28.7077 3.92703 28.1593 3.99295L4.11932 6.88296C3.57098 6.94888 3.07303 6.5578 3.00711 6.00946C2.94119 5.46113 3.33227 4.96317 3.8806 4.89725L27.9206 2.00725C28.4689 1.94133 28.9669 2.33241 29.0328 2.88074Z" fill="#BEBEBF"/>
<path fill-rule="evenodd" clip-rule="evenodd" d="M29.0328 2.88074C29.0987 3.42908 28.7077 3.92703 28.1593 3.99295L4.11932 6.88296C3.57098 6.94888 3.07303 6.5578 3.00711 6.00946C2.94119 5.46113 3.33227 4.96317 3.8806 4.89725L27.9206 2.00725C28.4689 1.94133 28.9669 2.33241 29.0328 2.88074Z" fill="url(#paint8_linear_18_12931)"/>
<path fill-rule="evenodd" clip-rule="evenodd" d="M29.0328 2.88074C29.0987 3.42908 28.7077 3.92703 28.1593 3.99295L4.11932 6.88296C3.57098 6.94888 3.07303 6.5578 3.00711 6.00946C2.94119 5.46113 3.33227 4.96317 3.8806 4.89725L27.9206 2.00725C28.4689 1.94133 28.9669 2.33241 29.0328 2.88074Z" fill="url(#paint9_radial_18_12931)"/>
</g>
<path d="M20.41 11H11.6C11.27 11 11.01 11.27 11.01 11.59V12H21.01V11.59C21 11.27 20.74 11 20.41 11Z" fill="url(#paint10_linear_18_12931)"/>
<path d="M20.41 11H11.6C11.27 11 11.01 11.27 11.01 11.59V12H21.01V11.59C21 11.27 20.74 11 20.41 11Z" fill="url(#paint11_linear_18_12931)"/>
<g filter="url(#filter4_f_18_12931)">
<path d="M28.6239 13.0461H3.55107" stroke="url(#paint12_linear_18_12931)" stroke-width="0.5" stroke-linecap="round"/>
</g>
<g filter="url(#filter5_f_18_12931)">
<path d="M9.65874 5.03632L22.3612 3.41553" stroke="url(#paint13_linear_18_12931)" stroke-width="0.5" stroke-linecap="round"/>
</g>
<g filter="url(#filter6_f_18_12931)">
<path d="M4.3759 5.72327L27.9558 2.89917" stroke="url(#paint14_linear_18_12931)" stroke-width="0.5" stroke-linecap="round"/>
</g>
<g filter="url(#filter7_i_18_12931)">
<path fill-rule="evenodd" clip-rule="evenodd" d="M23.2428 3.57583C23.3087 4.12417 22.9177 4.62212 22.3693 4.68802L9.88932 6.18802C9.34098 6.25393 8.84303 5.86284 8.77713 5.3145C8.71122 4.76616 9.10231 4.26822 9.65065 4.20231L22.1306 2.70231C22.679 2.63641 23.1769 3.0275 23.2428 3.57583Z" fill="#7A797A"/>
<path fill-rule="evenodd" clip-rule="evenodd" d="M23.2428 3.57583C23.3087 4.12417 22.9177 4.62212 22.3693 4.68802L9.88932 6.18802C9.34098 6.25393 8.84303 5.86284 8.77713 5.3145C8.71122 4.76616 9.10231 4.26822 9.65065 4.20231L22.1306 2.70231C22.679 2.63641 23.1769 3.0275 23.2428 3.57583Z" fill="url(#paint15_linear_18_12931)"/>
</g>
<defs>
<filter id="filter0_i_18_12931" x="2.00999" y="11.5" width="28.75" height="18.5" filterUnits="userSpaceOnUse" color-interpolation-filters="sRGB">
<feFlood flood-opacity="0" result="BackgroundImageFix"/>
<feBlend mode="normal" in="SourceGraphic" in2="BackgroundImageFix" result="shape"/>
<feColorMatrix in="SourceAlpha" type="matrix" values="0 0 0 0 0 0 0 0 0 0 0 0 0 0 0 0 0 0 127 0" result="hardAlpha"/>
<feOffset dx="0.75" dy="-0.5"/>
<feGaussianBlur stdDeviation="0.5"/>
<feComposite in2="hardAlpha" operator="arithmetic" k2="-1" k3="1"/>
<feColorMatrix type="matrix" values="0 0 0 0 0.713726 0 0 0 0 0.270588 0 0 0 0 0.360784 0 0 0 1 0"/>
<feBlend mode="normal" in2="shape" result="effect1_innerShadow_18_12931"/>
</filter>
<filter id="filter1_i_18_12931" x="0.759995" y="14" width="7.25" height="11.75" filterUnits="userSpaceOnUse" color-interpolation-filters="sRGB">
<feFlood flood-opacity="0" result="BackgroundImageFix"/>
<feBlend mode="normal" in="SourceGraphic" in2="BackgroundImageFix" result="shape"/>
<feColorMatrix in="SourceAlpha" type="matrix" values="0 0 0 0 0 0 0 0 0 0 0 0 0 0 0 0 0 0 127 0" result="hardAlpha"/>
<feOffset dx="-1.5" dy="0.75"/>
<feGaussianBlur stdDeviation="0.625"/>
<feComposite in2="hardAlpha" operator="arithmetic" k2="-1" k3="1"/>
<feColorMatrix type="matrix" values="0 0 0 0 0.207843 0 0 0 0 0.65098 0 0 0 0 0.890196 0 0 0 1 0"/>
<feBlend mode="normal" in2="shape" result="effect1_innerShadow_18_12931"/>
</filter>
<filter id="filter2_i_18_12931" x="9.25999" y="14" width="12.75" height="11.75" filterUnits="userSpaceOnUse" color-interpolation-filters="sRGB">
<feFlood flood-opacity="0" result="BackgroundImageFix"/>
<feBlend mode="normal" in="SourceGraphic" in2="BackgroundImageFix" result="shape"/>
<feColorMatrix in="SourceAlpha" type="matrix" values="0 0 0 0 0 0 0 0 0 0 0 0 0 0 0 0 0 0 127 0" result="hardAlpha"/>
<feOffset dx="-0.75" dy="0.75"/>
<feGaussianBlur stdDeviation="0.75"/>
<feComposite in2="hardAlpha" operator="arithmetic" k2="-1" k3="1"/>
<feColorMatrix type="matrix" values="0 0 0 0 0.219608 0 0 0 0 0.682353 0 0 0 0 0.968627 0 0 0 1 0"/>
<feBlend mode="normal" in2="shape" result="effect1_innerShadow_18_12931"/>
</filter>
<filter id="filter3_i_18_12931" x="2.99986" y="1.6" width="26.4402" height="5.29026" filterUnits="userSpaceOnUse" color-interpolation-filters="sRGB">
<feFlood flood-opacity="0" result="BackgroundImageFix"/>
<feBlend mode="normal" in="SourceGraphic" in2="BackgroundImageFix" result="shape"/>
<feColorMatrix in="SourceAlpha" type="matrix" values="0 0 0 0 0 0 0 0 0 0 0 0 0 0 0 0 0 0 127 0" result="hardAlpha"/>
<feOffset dx="0.4" dy="-0.4"/>
<feGaussianBlur stdDeviation="0.4"/>
<feComposite in2="hardAlpha" operator="arithmetic" k2="-1" k3="1"/>
<feColorMatrix type="matrix" values="0 0 0 0 0.639216 0 0 0 0 0.482353 0 0 0 0 0.572549 0 0 0 1 0"/>
<feBlend mode="normal" in2="shape" result="effect1_innerShadow_18_12931"/>
</filter>
<filter id="filter4_f_18_12931" x="2.55107" y="12.0461" width="27.0728" height="2" filterUnits="userSpaceOnUse" color-interpolation-filters="sRGB">
<feFlood flood-opacity="0" result="BackgroundImageFix"/>
<feBlend mode="normal" in="SourceGraphic" in2="BackgroundImageFix" result="shape"/>
<feGaussianBlur stdDeviation="0.375" result="effect1_foregroundBlur_18_12931"/>
</filter>
<filter id="filter5_f_18_12931" x="8.90871" y="2.66553" width="14.2025" height="3.12085" filterUnits="userSpaceOnUse" color-interpolation-filters="sRGB">
<feFlood flood-opacity="0" result="BackgroundImageFix"/>
<feBlend mode="normal" in="SourceGraphic" in2="BackgroundImageFix" result="shape"/>
<feGaussianBlur stdDeviation="0.25" result="effect1_foregroundBlur_18_12931"/>
</filter>
<filter id="filter6_f_18_12931" x="3.37587" y="1.89917" width="25.58" height="4.8241" filterUnits="userSpaceOnUse" color-interpolation-filters="sRGB">
<feFlood flood-opacity="0" result="BackgroundImageFix"/>
<feBlend mode="normal" in="SourceGraphic" in2="BackgroundImageFix" result="shape"/>
<feGaussianBlur stdDeviation="0.375" result="effect1_foregroundBlur_18_12931"/>
</filter>
<filter id="filter7_i_18_12931" x="8.76988" y="2.29507" width="14.8802" height="3.90024" filterUnits="userSpaceOnUse" color-interpolation-filters="sRGB">
<feFlood flood-opacity="0" result="BackgroundImageFix"/>
<feBlend mode="normal" in="SourceGraphic" in2="BackgroundImageFix" result="shape"/>
<feColorMatrix in="SourceAlpha" type="matrix" values="0 0 0 0 0 0 0 0 0 0 0 0 0 0 0 0 0 0 127 0" result="hardAlpha"/>
<feOffset dx="0.4" dy="-0.4"/>
<feGaussianBlur stdDeviation="0.4"/>
<feComposite in2="hardAlpha" operator="arithmetic" k2="-1" k3="1"/>
<feColorMatrix type="matrix" values="0 0 0 0 0.372549 0 0 0 0 0.282353 0 0 0 0 0.321569 0 0 0 1 0"/>
<feBlend mode="normal" in2="shape" result="effect1_innerShadow_18_12931"/>
</filter>
<linearGradient id="paint0_linear_18_12931" x1="16.01" y1="12" x2="16.01" y2="30" gradientUnits="userSpaceOnUse">
<stop stop-color="#FF7D4C"/>
<stop offset="1" stop-color="#FF4D50"/>
</linearGradient>
<radialGradient id="paint1_radial_18_12931" cx="0" cy="0" r="1" gradientUnits="userSpaceOnUse" gradientTransform="translate(16.5512 9.21703) rotate(180) scale(1.54116 10.6999)">
<stop stop-color="#8C888D"/>
<stop offset="0.896366" stop-color="#515151"/>
</radialGradient>
<linearGradient id="paint2_linear_18_12931" x1="16.01" y1="5.03125" x2="16.01" y2="5.90625" gradientUnits="userSpaceOnUse">
<stop stop-color="#463D43"/>
<stop offset="1" stop-color="#463D43" stop-opacity="0"/>
</linearGradient>
<linearGradient id="paint3_linear_18_12931" x1="2.00999" y1="25" x2="6.60228" y2="18.9495" gradientUnits="userSpaceOnUse">
<stop stop-color="#4FEBFF"/>
<stop offset="1" stop-color="#4CCDFF"/>
</linearGradient>
<linearGradient id="paint4_linear_18_12931" x1="23.5828" y1="18.8832" x2="27.01" y2="18.8832" gradientUnits="userSpaceOnUse">
<stop stop-color="#61FFFF"/>
<stop offset="1" stop-color="#55E8FF"/>
</linearGradient>
<linearGradient id="paint5_linear_18_12931" x1="27.01" y1="14" x2="27.01" y2="16.6943" gradientUnits="userSpaceOnUse">
<stop stop-color="#34BAFF"/>
<stop offset="1" stop-color="#34BAFF" stop-opacity="0"/>
</linearGradient>
<radialGradient id="paint6_radial_18_12931" cx="0" cy="0" r="1" gradientUnits="userSpaceOnUse" gradientTransform="translate(30.8128 14) rotate(124.661) scale(6.68666 1.43244)">
<stop offset="0.135302" stop-color="#56E9FF"/>
<stop offset="1" stop-color="#56E9FF" stop-opacity="0"/>
</radialGradient>
<linearGradient id="paint7_linear_18_12931" x1="11.0464" y1="24.6539" x2="23.0522" y2="14.5054" gradientUnits="userSpaceOnUse">
<stop stop-color="#5AFFFF"/>
<stop offset="1" stop-color="#57E8FF"/>
</linearGradient>
<linearGradient id="paint8_linear_18_12931" x1="29.0401" y1="2.7971" x2="27.9218" y2="2.93321" gradientUnits="userSpaceOnUse">
<stop stop-color="#E3E1E5"/>
<stop offset="1" stop-color="#E3E1E5" stop-opacity="0"/>
</linearGradient>
<radialGradient id="paint9_radial_18_12931" cx="0" cy="0" r="1" gradientUnits="userSpaceOnUse" gradientTransform="translate(9.6042 5.48767) rotate(171.511) scale(1.18936 1.48724)">
<stop offset="0.337765" stop-color="#92748F"/>
<stop offset="1" stop-color="#92748F" stop-opacity="0"/>
</radialGradient>
<linearGradient id="paint10_linear_18_12931" x1="11.01" y1="11.5" x2="21.01" y2="11.5" gradientUnits="userSpaceOnUse">
<stop stop-color="#604E4E"/>
<stop offset="0.0550467" stop-color="#81787D"/>
<stop offset="0.940555" stop-color="#81787E"/>
<stop offset="1" stop-color="#958E91"/>
</linearGradient>
<linearGradient id="paint11_linear_18_12931" x1="16.01" y1="10.9261" x2="16.01" y2="11.25" gradientUnits="userSpaceOnUse">
<stop stop-color="#756C6C"/>
<stop offset="1" stop-color="#756C6C" stop-opacity="0"/>
</linearGradient>
<linearGradient id="paint12_linear_18_12931" x1="28.6239" y1="13.5768" x2="2.35715" y2="13.5768" gradientUnits="userSpaceOnUse">
<stop stop-color="#FF985D"/>
<stop offset="1" stop-color="#FF985D" stop-opacity="0"/>
</linearGradient>
<linearGradient id="paint13_linear_18_12931" x1="22.3612" y1="3.18937" x2="9.13105" y2="5.0363" gradientUnits="userSpaceOnUse">
<stop stop-color="#969397"/>
<stop offset="1" stop-color="#969397" stop-opacity="0"/>
</linearGradient>
<linearGradient id="paint14_linear_18_12931" x1="27.9559" y1="2.64603" x2="3.20265" y2="6.41533" gradientUnits="userSpaceOnUse">
<stop stop-color="#C9C2CD"/>
<stop offset="1" stop-color="#E0DBE4"/>
</linearGradient>
<linearGradient id="paint15_linear_18_12931" x1="23.2501" y1="3.60418" x2="22.0561" y2="3.79265" gradientUnits="userSpaceOnUse">
<stop stop-color="#989698"/>
<stop offset="1" stop-color="#989698" stop-opacity="0"/>
</linearGradient>
</defs>
</svg>

<svg width="100%" height="100%" viewBox="0 0 32 32" xmlns="http://www.w3.org/2000/svg"><g filter="url(#a)"><path fill="url(#b)" d="M27.99 12H4.02c-1.11 0-2.01.9-2.01 2.01v12.98c0 1.66 1.35 3.01 3.011 3.01H27c1.66 0 3.011-1.35 3.011-3.01V14.01C30 12.91 29.1 12 27.99 12"/></g><path fill="url(#c)" d="m17.01 4-2 .272V12h2z"/><path fill="url(#d)" d="m17.01 4-2 .272V12h2z"/><g filter="url(#e)"><path fill="url(#f)" d="M6.906 14H2.01v11h4.896c.612 0 1.104-.49 1.104-1.1v-8.8c0-.6-.492-1.1-1.104-1.1"/></g><path fill="url(#g)" d="M25.114 25h4.896V14h-4.896c-.612 0-1.104.49-1.104 1.1v8.8c0 .61.492 1.1 1.104 1.1"/><path fill="url(#h)" d="M25.114 25h4.896V14h-4.896c-.612 0-1.104.49-1.104 1.1v8.8c0 .61.492 1.1 1.104 1.1"/><path fill="url(#i)" d="M25.114 25h4.896V14h-4.896c-.612 0-1.104.49-1.104 1.1v8.8c0 .61.492 1.1 1.104 1.1"/><g filter="url(#j)"><path fill="url(#k)" d="M20.91 14h-9.8c-.61 0-1.1.49-1.1 1.1v8.8c0 .61.49 1.1 1.1 1.1h9.8c.61 0 1.1-.49 1.1-1.1v-8.8c0-.6-.49-1.1-1.1-1.1"/></g><g fill-rule="evenodd" clip-rule="evenodd" filter="url(#l)"><path fill="#BEBEBF" d="M29.033 2.88a1 1 0 0 1-.874 1.113L4.12 6.883a1 1 0 0 1-.238-1.986l24.04-2.89a1 1 0 0 1 1.112.874"/><path fill="url(#m)" d="M29.033 2.88a1 1 0 0 1-.874 1.113L4.12 6.883a1 1 0 0 1-.238-1.986l24.04-2.89a1 1 0 0 1 1.112.874"/><path fill="url(#n)" d="M29.033 2.88a1 1 0 0 1-.874 1.113L4.12 6.883a1 1 0 0 1-.238-1.986l24.04-2.89a1 1 0 0 1 1.112.874"/></g><path fill="url(#o)" d="M20.41 11H11.6c-.33 0-.59.27-.59.59V12h10v-.41a.606.606 0 0 0-.6-.59"/><path fill="url(#p)" d="M20.41 11H11.6c-.33 0-.59.27-.59.59V12h10v-.41a.606.606 0 0 0-.6-.59"/><g filter="url(#q)"><path stroke="url(#r)" stroke-linecap="round" stroke-width=".5" d="M28.624 13.046H3.55"/></g><g filter="url(#s)"><path stroke="url(#t)" stroke-linecap="round" stroke-width=".5" d="m9.659 5.036 12.702-1.62"/></g><g filter="url(#u)"><path stroke="url(#v)" stroke-linecap="round" stroke-width=".5" d="M4.376 5.723 27.956 2.9"/></g><g fill-rule="evenodd" clip-rule="evenodd" filter="url(#w)"><path fill="#7A797A" d="M23.243 3.576a1 1 0 0 1-.874 1.112l-12.48 1.5a1 1 0 1 1-.238-1.986l12.48-1.5a1 1 0 0 1 1.112.874"/><path fill="url(#x)" d="M23.243 3.576a1 1 0 0 1-.874 1.112l-12.48 1.5a1 1 0 1 1-.238-1.986l12.48-1.5a1 1 0 0 1 1.112.874"/></g><defs><linearGradient id="b" x1="16.01" x2="16.01" y1="12" y2="30" gradientUnits="userSpaceOnUse"><stop stop-color="#FF7D4C"/><stop offset="1" stop-color="#FF4D50"/></linearGradient><linearGradient id="d" x1="16.01" x2="16.01" y1="5.031" y2="5.906" gradientUnits="userSpaceOnUse"><stop stop-color="#463D43"/><stop offset="1" stop-color="#463D43" stop-opacity="0"/></linearGradient><linearGradient id="f" x1="2.01" x2="6.602" y1="25" y2="18.95" gradientUnits="userSpaceOnUse"><stop stop-color="#4FEBFF"/><stop offset="1" stop-color="#4CCDFF"/></linearGradient><linearGradient id="g" x1="23.583" x2="27.01" y1="18.883" y2="18.883" gradientUnits="userSpaceOnUse"><stop stop-color="#61FFFF"/><stop offset="1" stop-color="#55E8FF"/></linearGradient><linearGradient id="h" x1="27.01" x2="27.01" y1="14" y2="16.694" gradientUnits="userSpaceOnUse"><stop stop-color="#34BAFF"/><stop offset="1" stop-color="#34BAFF" stop-opacity="0"/></linearGradient><linearGradient id="k" x1="11.046" x2="23.052" y1="24.654" y2="14.505" gradientUnits="userSpaceOnUse"><stop stop-color="#5AFFFF"/><stop offset="1" stop-color="#57E8FF"/></linearGradient><linearGradient id="m" x1="29.04" x2="27.922" y1="2.797" y2="2.933" gradientUnits="userSpaceOnUse"><stop stop-color="#E3E1E5"/><stop offset="1" stop-color="#E3E1E5" stop-opacity="0"/></linearGradient><linearGradient id="o" x1="11.01" x2="21.01" y1="11.5" y2="11.5" gradientUnits="userSpaceOnUse"><stop stop-color="#604E4E"/><stop offset=".055" stop-color="#81787D"/><stop offset=".941" stop-color="#81787E"/><stop offset="1" stop-color="#958E91"/></linearGradient><linearGradient id="p" x1="16.01" x2="16.01" y1="10.926" y2="11.25" gradientUnits="userSpaceOnUse"><stop stop-color="#756C6C"/><stop offset="1" stop-color="#756C6C" stop-opacity="0"/></linearGradient><linearGradient id="r" x1="28.624" x2="2.357" y1="13.577" y2="13.577" gradientUnits="userSpaceOnUse"><stop stop-color="#FF985D"/><stop offset="1" stop-color="#FF985D" stop-opacity="0"/></linearGradient><linearGradient id="t" x1="22.361" x2="9.131" y1="3.189" y2="5.036" gradientUnits="userSpaceOnUse"><stop stop-color="#969397"/><stop offset="1" stop-color="#969397" stop-opacity="0"/></linearGradient><linearGradient id="v" x1="27.956" x2="3.203" y1="2.646" y2="6.415" gradientUnits="userSpaceOnUse"><stop stop-color="#C9C2CD"/><stop offset="1" stop-color="#E0DBE4"/></linearGradient><linearGradient id="x" x1="23.25" x2="22.056" y1="3.604" y2="3.793" gradientUnits="userSpaceOnUse"><stop stop-color="#989698"/><stop offset="1" stop-color="#989698" stop-opacity="0"/></linearGradient><filter id="a" width="28.75" height="18.5" x="2.01" y="11.5" color-interpolation-filters="sRGB" filterUnits="userSpaceOnUse"><feFlood flood-opacity="0" result="BackgroundImageFix"/><feBlend in="SourceGraphic" in2="BackgroundImageFix" result="shape"/><feColorMatrix in="SourceAlpha" result="hardAlpha" values="0 0 0 0 0 0 0 0 0 0 0 0 0 0 0 0 0 0 127 0"/><feOffset dx=".75" dy="-.5"/><feGaussianBlur stdDeviation=".5"/><feComposite in2="hardAlpha" k2="-1" k3="1" operator="arithmetic"/><feColorMatrix values="0 0 0 0 0.713726 0 0 0 0 0.270588 0 0 0 0 0.360784 0 0 0 1 0"/><feBlend in2="shape" result="effect1_innerShadow_18_12931"/></filter><filter id="e" width="7.25" height="11.75" x=".76" y="14" color-interpolation-filters="sRGB" filterUnits="userSpaceOnUse"><feFlood flood-opacity="0" result="BackgroundImageFix"/><feBlend in="SourceGraphic" in2="BackgroundImageFix" result="shape"/><feColorMatrix in="SourceAlpha" result="hardAlpha" values="0 0 0 0 0 0 0 0 0 0 0 0 0 0 0 0 0 0 127 0"/><feOffset dx="-1.5" dy=".75"/><feGaussianBlur stdDeviation=".625"/><feComposite in2="hardAlpha" k2="-1" k3="1" operator="arithmetic"/><feColorMatrix values="0 0 0 0 0.207843 0 0 0 0 0.65098 0 0 0 0 0.890196 0 0 0 1 0"/><feBlend in2="shape" result="effect1_innerShadow_18_12931"/></filter><filter id="j" width="12.75" height="11.75" x="9.26" y="14" color-interpolation-filters="sRGB" filterUnits="userSpaceOnUse"><feFlood flood-opacity="0" result="BackgroundImageFix"/><feBlend in="SourceGraphic" in2="BackgroundImageFix" result="shape"/><feColorMatrix in="SourceAlpha" result="hardAlpha" values="0 0 0 0 0 0 0 0 0 0 0 0 0 0 0 0 0 0 127 0"/><feOffset dx="-.75" dy=".75"/><feGaussianBlur stdDeviation=".75"/><feComposite in2="hardAlpha" k2="-1" k3="1" operator="arithmetic"/><feColorMatrix values="0 0 0 0 0.219608 0 0 0 0 0.682353 0 0 0 0 0.968627 0 0 0 1 0"/><feBlend in2="shape" result="effect1_innerShadow_18_12931"/></filter><filter id="l" width="26.44" height="5.29" x="3" y="1.6" color-interpolation-filters="sRGB" filterUnits="userSpaceOnUse"><feFlood flood-opacity="0" result="BackgroundImageFix"/><feBlend in="SourceGraphic" in2="BackgroundImageFix" result="shape"/><feColorMatrix in="SourceAlpha" result="hardAlpha" values="0 0 0 0 0 0 0 0 0 0 0 0 0 0 0 0 0 0 127 0"/><feOffset dx=".4" dy="-.4"/><feGaussianBlur stdDeviation=".4"/><feComposite in2="hardAlpha" k2="-1" k3="1" operator="arithmetic"/><feColorMatrix values="0 0 0 0 0.639216 0 0 0 0 0.482353 0 0 0 0 0.572549 0 0 0 1 0"/><feBlend in2="shape" result="effect1_innerShadow_18_12931"/></filter><filter id="q" width="27.073" height="2" x="2.551" y="12.046" color-interpolation-filters="sRGB" filterUnits="userSpaceOnUse"><feFlood flood-opacity="0" result="BackgroundImageFix"/><feBlend in="SourceGraphic" in2="BackgroundImageFix" result="shape"/><feGaussianBlur result="effect1_foregroundBlur_18_12931" stdDeviation=".375"/></filter><filter id="s" width="14.203" height="3.121" x="8.909" y="2.666" color-interpolation-filters="sRGB" filterUnits="userSpaceOnUse"><feFlood flood-opacity="0" result="BackgroundImageFix"/><feBlend in="SourceGraphic" in2="BackgroundImageFix" result="shape"/><feGaussianBlur result="effect1_foregroundBlur_18_12931" stdDeviation=".25"/></filter><filter id="u" width="25.58" height="4.824" x="3.376" y="1.899" color-interpolation-filters="sRGB" filterUnits="userSpaceOnUse"><feFlood flood-opacity="0" result="BackgroundImageFix"/><feBlend in="SourceGraphic" in2="BackgroundImageFix" result="shape"/><feGaussianBlur result="effect1_foregroundBlur_18_12931" stdDeviation=".375"/></filter><filter id="w" width="14.88" height="3.9" x="8.77" y="2.295" color-interpolation-filters="sRGB" filterUnits="userSpaceOnUse"><feFlood flood-opacity="0" result="BackgroundImageFix"/><feBlend in="SourceGraphic" in2="BackgroundImageFix" result="shape"/><feColorMatrix in="SourceAlpha" result="hardAlpha" values="0 0 0 0 0 0 0 0 0 0 0 0 0 0 0 0 0 0 127 0"/><feOffset dx=".4" dy="-.4"/><feGaussianBlur stdDeviation=".4"/><feComposite in2="hardAlpha" k2="-1" k3="1" operator="arithmetic"/><feColorMatrix values="0 0 0 0 0.372549 0 0 0 0 0.282353 0 0 0 0 0.321569 0 0 0 1 0"/><feBlend in2="shape" result="effect1_innerShadow_18_12931"/></filter><radialGradient id="c" cx="0" cy="0" r="1" gradientTransform="matrix(-1.54116 0 0 -10.6999 16.551 9.217)" gradientUnits="userSpaceOnUse"><stop stop-color="#8C888D"/><stop offset=".896" stop-color="#515151"/></radialGradient><radialGradient id="i" cx="0" cy="0" r="1" gradientTransform="matrix(-3.80284 5.49999 -1.17823 -.81466 30.813 14)" gradientUnits="userSpaceOnUse"><stop offset=".135" stop-color="#56E9FF"/><stop offset="1" stop-color="#56E9FF" stop-opacity="0"/></radialGradient><radialGradient id="n" cx="0" cy="0" r="1" gradientTransform="rotate(171.511 4.598 3.1)scale(1.18936 1.48724)" gradientUnits="userSpaceOnUse"><stop offset=".338" stop-color="#92748F"/><stop offset="1" stop-color="#92748F" stop-opacity="0"/></radialGradient></defs></svg>
